X:102
T:Dance, A
O:No 102 Wm Clarke MS  Feltwell, Norfolk
I:abc2nwc
M:6/8
L:1/8
K:G
d|d2g dBG|ABA AFD|EFG ABc|BAA A2d|
d2g dBG|ABA AFD|EFG ABc|BGG G2:|
|:d|dcB cde|fga d2B|cec BdB|BAA A2d|
dcB edc|fed efg|ABc ded|BGG G2:|

